images/vector31.svg

<svg width="20" height="16" viewBox="0 0 20 16" fill="none" xmlns="http://www.w3.org/2000/svg">
<path d="M0.230769 8.76928C0.0769231 8.61543 0 8.38466 0 8.23082C0 8.07697 0.0769231 7.8462 0.230769 7.69235L1.30769 6.61543C1.61538 6.30774 2.07692 6.30774 2.38462 6.61543L2.46154 6.69235L6.69231 11.2308C6.84615 11.3847 7.07692 11.3847 7.23077 11.2308L17.5385 0.538508H17.6154C17.9231 0.230816 18.3846 0.230816 18.6923 0.538508L19.7692 1.61543C20.0769 1.92312 20.0769 2.38466 19.7692 2.69235L7.46154 15.4616C7.30769 15.6154 7.15385 15.6924 6.92308 15.6924C6.69231 15.6924 6.53846 15.6154 6.38462 15.4616L0.384615 9.00005L0.230769 8.76928Z" fill="white"/>
</svg>

<svg width="20" height="16" fill="none" xmlns="http://www.w3.org/2000/svg"><path d="M.23 8.77A.831.831 0 010 8.23c0-.153.077-.384.23-.538l1.078-1.077a.744.744 0 011.077 0l.077.077 4.23 4.539a.372.372 0 00.539 0L17.538.539h.077a.744.744 0 011.077 0l1.077 1.076a.744.744 0 010 1.077L7.462 15.462a.699.699 0 01-.539.23.698.698 0 01-.538-.23L.385 9 .23 8.77z" fill="#fff"/></svg>
